;FLAVOR:Marlin
;TIME:860
;Filament used: 0.565225m
;Layer height: 0.2
;MINX:57.173
;MINY:74.082
;MINZ:0.2
;MAXX:122.823
;MAXY:105.918
;MAXZ:8.4
;Generated with Cura_SteamEngine 5.2.2
M140 S50
M105
M190 S50
M104 S190
M105
M109 S190
M82 ;absolute extrusion mode
; G28 home all axes
 M117 Purge extruder
 G92 E0 ; reset extruder
 G1 Z1.0 F3000 ; move z up little to prevent scratching of surface
 G1 X2 Y20 Z0.3 F5000.0 ; move to start-line position
 G1 X2 Y175.0 Z0.3 F1500.0 E15 ; draw 1st line
 G1 X2 Y175.0 Z0.4 F5000.0 ; move to side a little
 G1 X2 Y20 Z0.4 F1500.0 E30 ; draw 2nd line
 G92 E0 ; reset extruder
 G1 Z1.0 F3000 ; move z up little to prevent scratching of surface
G92 E0
G92 E0
G1 F2400 E-4
;LAYER_COUNT:40
;LAYER:0
M107
G1 F300 Z0.6
G0 F6000 X62.485 Y77.863 Z0.6
;TYPE:SKIRT
G1 F300 Z0.2
G1 F2400 E0
G1 F1200 X63.229 Y77.264 E0.03495
G1 X63.497 Y77.066 E0.04714
G1 X63.979 Y76.729 E0.06865
G1 X64.237 Y76.558 E0.07998
G1 X65.059 Y76.061 E0.11512
G1 X65.492 Y75.835 E0.13299
G1 X66.003 Y75.582 E0.15385
G1 X67.056 Y75.125 E0.19585
G1 X67.364 Y75.009 E0.20789
G1 X68.413 Y74.67 E0.24822
G1 X68.664 Y74.602 E0.25774
G1 X69.511 Y74.406 E0.28955
G1 X69.913 Y74.329 E0.30452
G1 X70.893 Y74.185 E0.34076
G1 X71.105 Y74.163 E0.34856
G1 X72.087 Y74.103 E0.38455
G1 X73.346 Y74.082 E0.43062
G1 X106.882 Y74.082 E1.65757
G1 X107.634 Y74.091 E1.68509
G1 X108.347 Y74.123 E1.7112
G1 X108.758 Y74.154 E1.72628
G1 X109.507 Y74.235 E1.75384
G1 X109.719 Y74.265 E1.76168
G1 X110.861 Y74.486 E1.80423
G1 X111.328 Y74.601 E1.82183
G1 X112.251 Y74.869 E1.85699
G1 X112.835 Y75.083 E1.87975
G1 X113.295 Y75.266 E1.89786
G1 X114.373 Y75.761 E1.94126
G1 X114.773 Y75.97 E1.95777
G1 X115.605 Y76.45 E1.99291
G1 X116.129 Y76.802 E2.01601
G1 X116.373 Y76.976 E2.02697
G1 X116.93 Y77.399 E2.05256
G1 X117.296 Y77.695 E2.06978
G1 X118.017 Y78.33 E2.10494
G1 X118.411 Y78.726 E2.12537
G1 X118.743 Y79.076 E2.14302
G1 X119.467 Y79.917 E2.18362
G1 X119.645 Y80.145 E2.19421
G1 X120.231 Y80.966 E2.23111
G1 X120.423 Y81.262 E2.24402
G1 X120.912 Y82.091 E2.27923
G1 X121.076 Y82.397 E2.29193
G1 X121.51 Y83.297 E2.32849
G1 X121.619 Y83.551 E2.3386
G1 X121.956 Y84.436 E2.37325
G1 X122.089 Y84.833 E2.38857
G1 X122.399 Y85.936 E2.43048
G1 X122.476 Y86.274 E2.44317
G1 X122.698 Y87.607 E2.49261
G1 X122.744 Y88.036 E2.50839
G1 X122.808 Y89.061 E2.54597
G1 X122.823 Y89.906 E2.57689
G1 X122.818 Y90.712 E2.60638
G1 X122.786 Y91.423 E2.63242
G1 X122.75 Y91.901 E2.64995
G1 X122.605 Y93.052 E2.6924
G1 X122.567 Y93.266 E2.70035
G1 X122.374 Y94.15 E2.73345
G1 X122.262 Y94.581 E2.74974
G1 X121.935 Y95.633 E2.79005
G1 X121.838 Y95.899 E2.80041
G1 X121.473 Y96.783 E2.8354
G1 X121.31 Y97.136 E2.84962
G1 X120.705 Y98.273 E2.89675
G1 X120.521 Y98.577 E2.90975
G1 X119.952 Y99.43 E2.94726
G1 X119.701 Y99.772 E2.96278
G1 X118.781 Y100.875 E3.01533
G1 X118.343 Y101.338 E3.03865
G1 X117.655 Y102.007 E3.07376
G1 X117.059 Y102.505 E3.10217
G1 X116.745 Y102.75 E3.11674
G1 X116.035 Y103.262 E3.14877
G1 X115.853 Y103.383 E3.15677
G1 X115.083 Y103.854 E3.18979
G1 X114.387 Y104.228 E3.2187
G1 X113.999 Y104.419 E3.23452
G1 X113.003 Y104.852 E3.27425
G1 X112.669 Y104.979 E3.28733
G1 X111.627 Y105.319 E3.32743
G1 X111.376 Y105.388 E3.33695
G1 X110.471 Y105.598 E3.37094
G1 X110.071 Y105.674 E3.38584
G1 X109.103 Y105.816 E3.42163
G1 X108.89 Y105.838 E3.42947
G1 X107.913 Y105.897 E3.46528
G1 X106.654 Y105.918 E3.51135
G1 X72.963 Y105.917 E4.74397
G1 X72.366 Y105.909 E4.76581
G1 X71.653 Y105.877 E4.79193
G1 X71.242 Y105.846 E4.80701
G1 X70.493 Y105.765 E4.83457
G1 X70.281 Y105.735 E4.8424
G1 X69.251 Y105.541 E4.88075
G1 X68.92 Y105.463 E4.89319
G1 X68.058 Y105.224 E4.92592
G1 X67.798 Y105.141 E4.9359
G1 X66.964 Y104.839 E4.96835
G1 X66.644 Y104.709 E4.98099
G1 X65.679 Y104.265 E5.01985
G1 X65.262 Y104.049 E5.03704
G1 X64.428 Y103.572 E5.07219
G1 X63.826 Y103.166 E5.09875
G1 X63.583 Y102.991 E5.10971
G1 X63.07 Y102.6 E5.13331
G1 X62.704 Y102.304 E5.15053
G1 X61.983 Y101.669 E5.18568
G1 X61.595 Y101.28 E5.20578
G1 X61.252 Y100.919 E5.224
G1 X60.507 Y100.052 E5.26582
G1 X60.336 Y99.832 E5.27602
G1 X59.753 Y99.011 E5.31286
G1 X59.556 Y98.706 E5.32614
G1 X59.042 Y97.826 E5.36343
G1 X58.877 Y97.513 E5.37637
G1 X58.465 Y96.648 E5.41142
G1 X58.374 Y96.434 E5.41993
G1 X58.046 Y95.567 E5.45385
G1 X57.905 Y95.144 E5.47016
G1 X57.591 Y94.013 E5.5131
G1 X57.517 Y93.682 E5.52551
G1 X57.352 Y92.778 E5.55913
G1 X57.314 Y92.509 E5.56907
G1 X57.215 Y91.463 E5.60751
G1 X57.187 Y90.895 E5.62832
G1 X57.173 Y90.389 E5.64684
G1 X57.173 Y89.736 E5.67073
G1 X57.184 Y89.162 E5.69173
G1 X57.224 Y88.403 E5.71954
G1 X57.261 Y87.969 E5.73548
G1 X57.407 Y86.875 E5.77586
G1 X57.443 Y86.678 E5.78318
G1 X57.626 Y85.85 E5.81421
G1 X57.738 Y85.419 E5.8305
G1 X58.072 Y84.348 E5.87155
G1 X58.171 Y84.078 E5.88207
G1 X58.504 Y83.268 E5.91411
G1 X58.647 Y82.954 E5.92673
G1 X59.123 Y82.022 E5.96502
G1 X59.294 Y81.722 E5.97765
G1 X60.018 Y80.608 E6.02626
G1 X60.319 Y80.198 E6.04487
G1 X60.919 Y79.448 E6.08001
G1 X61.324 Y79.006 E6.10194
G1 X61.789 Y78.525 E6.12642
G1 X62.485 Y77.863 E6.16156
G0 F6000 X62.788 Y78.182
G1 F1200 X63.49 Y77.618 E6.19451
G1 X63.758 Y77.42 E6.2067
G1 X64.48 Y76.925 E6.23873
G1 X65.687 Y76.229 E6.2897
G1 X66.198 Y75.976 E6.31056
G1 X67.211 Y75.536 E6.35097
G1 X67.519 Y75.42 E6.36301
G1 X68.528 Y75.094 E6.40181
G1 X68.779 Y75.026 E6.41132
G1 X69.594 Y74.838 E6.44192
G1 X69.996 Y74.761 E6.4569
G1 X70.938 Y74.622 E6.49173
G1 X71.15 Y74.6 E6.49953
G1 X72.095 Y74.543 E6.53417
G1 X73.346 Y74.522 E6.57994
G1 X106.882 Y74.522 E7.8069
G1 X107.628 Y74.531 E7.83419
G1 X108.314 Y74.561 E7.85931
G1 X108.725 Y74.592 E7.87439
G1 X109.445 Y74.67 E7.90089
G1 X109.657 Y74.7 E7.90872
G1 X110.756 Y74.913 E7.94968
G1 X111.223 Y75.028 E7.96728
G1 X112.128 Y75.292 E8.00177
G1 X112.672 Y75.492 E8.02297
G1 X113.132 Y75.675 E8.04108
G1 X114.169 Y76.151 E8.08283
G1 X114.569 Y76.36 E8.09934
G1 X115.385 Y76.831 E8.13381
G1 X115.874 Y77.161 E8.1554
G1 X116.118 Y77.335 E8.16636
G1 X116.653 Y77.741 E8.19093
G1 X117.019 Y78.037 E8.20815
G1 X117.726 Y78.66 E8.24263
G1 X118.092 Y79.029 E8.26164
G1 X118.424 Y79.379 E8.27929
G1 X119.12 Y80.187 E8.31831
G1 X119.298 Y80.415 E8.32889
G1 X119.861 Y81.205 E8.36438
G1 X120.053 Y81.501 E8.37729
G1 X120.524 Y82.299 E8.41119
G1 X120.688 Y82.605 E8.4239
G1 X121.105 Y83.471 E8.45906
G1 X121.214 Y83.725 E8.46917
G1 X121.539 Y84.576 E8.5025
G1 X121.672 Y84.973 E8.51782
G1 X121.97 Y86.033 E8.55811
G1 X122.047 Y86.371 E8.57079
G1 X122.261 Y87.654 E8.61838
G1 X122.307 Y88.083 E8.63416
G1 X122.368 Y89.069 E8.67031
G1 X122.383 Y89.914 E8.70123
G1 X122.378 Y90.706 E8.7302
G1 X122.348 Y91.39 E8.75525
G1 X122.312 Y91.868 E8.77279
G1 X122.172 Y92.975 E8.81361
G1 X122.134 Y93.189 E8.82156
G1 X121.948 Y94.04 E8.85343
G1 X121.836 Y94.471 E8.86973
G1 X121.521 Y95.482 E8.90847
G1 X121.424 Y95.748 E8.91883
G1 X121.074 Y96.598 E8.95246
G1 X120.911 Y96.951 E8.96668
G1 X120.329 Y98.046 E9.01205
G1 X120.145 Y98.35 E9.02505
G1 X119.598 Y99.17 E9.06112
G1 X119.347 Y99.512 E9.07664
G1 X118.462 Y100.572 E9.12716
G1 X118.024 Y101.035 E9.15048
G1 X117.348 Y101.691 E9.18494
G1 X116.788 Y102.158 E9.21162
G1 X116.474 Y102.403 E9.22619
G1 X115.791 Y102.896 E9.25701
G1 X115.609 Y103.017 E9.265
G1 X114.862 Y103.474 E9.29704
G1 X114.192 Y103.833 E9.32485
G1 X113.804 Y104.024 E9.34067
G1 X112.847 Y104.44 E9.37885
G1 X112.513 Y104.567 E9.39192
G1 X111.51 Y104.895 E9.43053
G1 X111.259 Y104.964 E9.44006
G1 X110.389 Y105.166 E9.47273
G1 X109.989 Y105.242 E9.48763
G1 X109.057 Y105.378 E9.52209
G1 X108.844 Y105.4 E9.52992
G1 X107.905 Y105.457 E9.56434
G1 X106.654 Y105.478 E9.61012
G1 X72.969 Y105.477 E10.84252
G1 X72.372 Y105.469 E10.86436
G1 X71.686 Y105.439 E10.88949
G1 X71.275 Y105.408 E10.90457
G1 X70.555 Y105.33 E10.93106
G1 X70.343 Y105.3 E10.9389
G1 X69.352 Y105.113 E10.97579
G1 X69.021 Y105.035 E10.98823
G1 X68.191 Y104.805 E11.01975
G1 X67.931 Y104.722 E11.02973
G1 X67.129 Y104.432 E11.06093
G1 X66.809 Y104.302 E11.07357
G1 X65.882 Y103.874 E11.11093
G1 X65.465 Y103.658 E11.12811
G1 X64.647 Y103.19 E11.16259
G1 X64.083 Y102.809 E11.18749
G1 X63.84 Y102.634 E11.19844
G1 X63.347 Y102.258 E11.22113
G1 X62.981 Y101.962 E11.23835
G1 X62.274 Y101.339 E11.27283
G1 X61.914 Y100.977 E11.2915
G1 X61.571 Y100.616 E11.30972
G1 X60.854 Y99.782 E11.34996
G1 X60.683 Y99.562 E11.36016
G1 X60.123 Y98.772 E11.39558
G1 X59.926 Y98.467 E11.40887
G1 X59.431 Y97.621 E11.44473
G1 X59.266 Y97.308 E11.45767
G1 X58.87 Y96.476 E11.49139
G1 X58.779 Y96.262 E11.49989
G1 X58.464 Y95.428 E11.53251
G1 X58.323 Y95.005 E11.54882
G1 X58.02 Y93.917 E11.59014
G1 X57.946 Y93.586 E11.60255
G1 X57.788 Y92.717 E11.63487
G1 X57.75 Y92.448 E11.64481
G1 X57.654 Y91.442 E11.68178
G1 X57.626 Y90.874 E11.70259
G1 X57.613 Y90.387 E11.72041
G1 X57.613 Y89.744 E11.74393
G1 X57.624 Y89.17 E11.76494
G1 X57.662 Y88.44 E11.79168
G1 X57.699 Y88.006 E11.80762
G1 X57.84 Y86.954 E11.84645
G1 X57.876 Y86.757 E11.85378
G1 X58.052 Y85.96 E11.88364
G1 X58.164 Y85.529 E11.89993
G1 X58.485 Y84.5 E11.93937
G1 X58.584 Y84.23 E11.94989
G1 X58.904 Y83.451 E11.9807
G1 X59.047 Y83.137 E11.99333
G1 X59.506 Y82.24 E12.03019
G1 X59.677 Y81.94 E12.04282
G1 X60.372 Y80.868 E12.08957
G1 X60.673 Y80.458 E12.10817
G1 X61.263 Y79.723 E12.14266
G1 X61.641 Y79.312 E12.16309
G1 X62.106 Y78.831 E12.18756
G1 X62.788 Y78.182 E12.22201
G0 F6000 X63.092 Y78.501
G1 F1200 X63.752 Y77.972 E12.25295
G1 X64.02 Y77.774 E12.26514
G1 X64.465 Y77.462 E12.28503
G1 X64.723 Y77.291 E12.29635
G1 X65.882 Y76.624 E12.34528
G1 X66.393 Y76.371 E12.36614
G1 X67.366 Y75.948 E12.40495
G1 X67.674 Y75.832 E12.417
G1 X68.644 Y75.519 E12.45429
G1 X68.895 Y75.451 E12.4638
G1 X69.677 Y75.27 E12.49317
G1 X70.079 Y75.193 E12.50814
G1 X70.984 Y75.06 E12.54161
G1 X71.196 Y75.038 E12.54941
G1 X72.103 Y74.983 E12.58265
G1 X73.346 Y74.962 E12.62813
G1 X106.882 Y74.962 E13.85509
G1 X107.622 Y74.971 E13.88216
G1 X108.281 Y75 E13.9063
G1 X108.692 Y75.031 E13.92138
G1 X109.384 Y75.106 E13.94684
G1 X109.596 Y75.136 E13.95467
G1 X110.651 Y75.34 E13.99399
G1 X111.118 Y75.455 E14.01158
G1 X112.004 Y75.715 E14.04537
G1 X112.509 Y75.901 E14.06506
G1 X112.969 Y76.084 E14.08317
G1 X113.966 Y76.541 E14.12329
G1 X114.366 Y76.75 E14.13981
G1 X115.165 Y77.213 E14.17359
G1 X115.862 Y77.693 E14.20455
G1 X116.376 Y78.083 E14.22816
G1 X116.742 Y78.379 E14.24538
G1 X117.434 Y78.991 E14.27918
G1 X117.773 Y79.332 E14.29677
G1 X118.105 Y79.682 E14.31442
G1 X118.774 Y80.458 E14.35191
G1 X118.952 Y80.686 E14.36249
G1 X119.492 Y81.445 E14.39657
G1 X119.684 Y81.741 E14.40948
G1 X120.137 Y82.506 E14.442
G1 X120.301 Y82.812 E14.45471
G1 X120.701 Y83.644 E14.48848
G1 X120.81 Y83.898 E14.49859
G1 X121.122 Y84.716 E14.53062
G1 X121.255 Y85.113 E14.54594
G1 X121.541 Y86.131 E14.58463
G1 X121.618 Y86.469 E14.59731
G1 X121.823 Y87.7 E14.64297
G1 X121.869 Y88.129 E14.65876
G1 X121.928 Y89.077 E14.69351
G1 X121.943 Y89.922 E14.72443
G1 X121.938 Y90.7 E14.75289
G1 X121.909 Y91.357 E14.77695
G1 X121.873 Y91.835 E14.79449
G1 X121.739 Y92.898 E14.83369
G1 X121.701 Y93.112 E14.84164
G1 X121.522 Y93.929 E14.87224
G1 X121.41 Y94.36 E14.88853
G1 X121.108 Y95.331 E14.92574
G1 X121.011 Y95.597 E14.93609
G1 X120.674 Y96.414 E14.96843
G1 X120.511 Y96.767 E14.98265
G1 X119.953 Y97.818 E15.02619
G1 X119.769 Y98.122 E15.03919
G1 X119.243 Y98.909 E15.07382
G1 X118.992 Y99.251 E15.08934
G1 X118.142 Y100.27 E15.13789
G1 X117.704 Y100.733 E15.16121
G1 X117.041 Y101.375 E15.19498
G1 X116.518 Y101.811 E15.21989
G1 X116.204 Y102.056 E15.23446
G1 X115.548 Y102.529 E15.26405
G1 X115.366 Y102.65 E15.27204
G1 X114.641 Y103.093 E15.30313
G1 X113.998 Y103.438 E15.32982
G1 X113.61 Y103.629 E15.34565
G1 X112.691 Y104.029 E15.38232
G1 X112.357 Y104.156 E15.39539
G1 X111.394 Y104.471 E15.43246
G1 X111.143 Y104.54 E15.44198
G1 X110.307 Y104.734 E15.47338
G1 X109.907 Y104.81 E15.48828
G1 X109.012 Y104.941 E15.52137
G1 X108.799 Y104.963 E15.52921
G1 X107.897 Y105.017 E15.56227
G1 X106.654 Y105.038 E15.60775
G1 X72.975 Y105.037 E16.83993
G1 X72.378 Y105.029 E16.86178
G1 X71.719 Y105 E16.88591
G1 X71.308 Y104.969 E16.90099
G1 X70.616 Y104.894 E16.92646
G1 X70.404 Y104.864 E16.93429
G1 X69.453 Y104.685 E16.96969
G1 X69.122 Y104.607 E16.98214
G1 X68.325 Y104.386 E17.0124
G1 X68.065 Y104.303 E17.02238
G1 X67.295 Y104.024 E17.05234
G1 X66.975 Y103.894 E17.06498
G1 X66.084 Y103.484 E17.10087
G1 X65.667 Y103.268 E17.11805
G1 X64.866 Y102.808 E17.15184
G1 X64.34 Y102.452 E17.17508
G1 X64.097 Y102.277 E17.18603
G1 X63.624 Y101.916 E17.2078
G1 X63.258 Y101.62 E17.22503
G1 X62.566 Y101.008 E17.25882
G1 X62.233 Y100.674 E17.27608
G1 X61.89 Y100.313 E17.2943
G1 X61.201 Y99.512 E17.33295
G1 X61.03 Y99.292 E17.34315
G1 X60.492 Y98.534 E17.37716
G1 X60.295 Y98.229 E17.39044
G1 X59.82 Y97.416 E17.42489
G1 X59.655 Y97.103 E17.43783
G1 X59.275 Y96.304 E17.4702
G1 X59.184 Y96.09 E17.47871
G1 X58.881 Y95.289 E17.51004
G1 X58.74 Y94.866 E17.52636
G1 X58.45 Y93.821 E17.56603
G1 X58.376 Y93.49 E17.57844
G1 X58.224 Y92.655 E17.6095
G1 X58.186 Y92.386 E17.61943
G1 X58.094 Y91.42 E17.65494
G1 X58.066 Y90.852 E17.67574
G1 X58.053 Y90.385 E17.69284
G1 X58.053 Y89.753 E17.71596
G1 X58.064 Y89.179 E17.73696
G1 X58.101 Y88.477 E17.76268
G1 X58.138 Y88.043 E17.77862
G1 X58.273 Y87.033 E17.8159
G1 X58.309 Y86.836 E17.82322
G1 X58.478 Y86.071 E17.85189
G1 X58.59 Y85.64 E17.86818
G1 X58.899 Y84.651 E17.90609
G1 X58.998 Y84.381 E17.91661
G1 X59.305 Y83.633 E17.94619
G1 X59.448 Y83.319 E17.95882
G1 X59.888 Y82.458 E17.99419
G1 X60.059 Y82.158 E18.00682
G1 X60.727 Y81.129 E18.05171
G1 X61.028 Y80.719 E18.07032
G1 X61.606 Y79.999 E18.1041
G1 X61.957 Y79.618 E18.12305
G1 X62.422 Y79.137 E18.14753
G1 X63.092 Y78.501 E18.18133
G0 F6000 X63.395 Y78.821
G1 F1200 X64.013 Y78.326 E18.21029
G1 X64.281 Y78.128 E18.22249
G1 X64.966 Y77.658 E18.25288
G1 X66.077 Y77.018 E18.29979
G1 X66.588 Y76.765 E18.32065
G1 X67.521 Y76.36 E18.35786
G1 X67.829 Y76.244 E18.3699
G1 X68.759 Y75.944 E18.40565
G1 X69.01 Y75.876 E18.41517
G1 X69.759 Y75.702 E18.4433
G1 X70.161 Y75.625 E18.45828
G1 X71.029 Y75.498 E18.49037
G1 X71.241 Y75.476 E18.49817
G1 X72.111 Y75.423 E18.53006
G1 X73.346 Y75.402 E18.57525
G1 X106.882 Y75.402 E19.8022
G1 X107.616 Y75.411 E19.82906
G1 X108.248 Y75.439 E19.8522
G1 X108.659 Y75.47 E19.86728
G1 X109.322 Y75.542 E19.89168
G1 X109.534 Y75.572 E19.89952
G1 X110.546 Y75.767 E19.93722
G1 X111.013 Y75.882 E19.95482
G1 X111.88 Y76.137 E19.98788
G1 X112.347 Y76.31 E20.0061
G1 X112.807 Y76.493 E20.02421
G1 X113.762 Y76.931 E20.06265
G1 X114.162 Y77.14 E20.07917
G1 X114.944 Y77.594 E20.11225
G1 X115.607 Y78.051 E20.14171
G1 X116.1 Y78.426 E20.16437
G1 X116.466 Y78.722 E20.18159
G1 X117.454 Y79.635 E20.23081
G1 X117.786 Y79.985 E20.24846
G1 X118.427 Y80.729 E20.28439
G1 X118.605 Y80.957 E20.29497
G1 X119.123 Y81.684 E20.32763
G1 X119.315 Y81.98 E20.34054
G1 X119.749 Y82.714 E20.37174
G1 X119.913 Y83.02 E20.38444
G1 X120.297 Y83.818 E20.41684
G1 X120.406 Y84.072 E20.42695
G1 X120.705 Y84.856 E20.45765
G1 X120.838 Y85.253 E20.47297
G1 X121.112 Y86.229 E20.51006
G1 X121.189 Y86.567 E20.52274
G1 X121.386 Y87.747 E20.56651
G1 X121.432 Y88.176 E20.58229
G1 X121.488 Y89.085 E20.61561
G1 X121.503 Y89.93 E20.64653
G1 X121.498 Y90.694 E20.67449
G1 X121.47 Y91.324 E20.69756
G1 X121.434 Y91.802 E20.7151
G1 X121.306 Y92.821 E20.75267
G1 X121.268 Y93.035 E20.76062
G1 X121.096 Y93.818 E20.78995
G1 X120.984 Y94.249 E20.80624
G1 X120.695 Y95.18 E20.84191
G1 X120.598 Y95.446 E20.85227
G1 X120.275 Y96.229 E20.88326
G1 X120.112 Y96.582 E20.89748
G1 X119.576 Y97.59 E20.93925
G1 X119.392 Y97.894 E20.95225
G1 X118.888 Y98.649 E20.98546
G1 X118.637 Y98.991 E21.00098
G1 X117.822 Y99.967 E21.0475
G1 X117.384 Y100.43 E21.07082
G1 X116.735 Y101.059 E21.10389
G1 X116.247 Y101.464 E21.12709
G1 X115.933 Y101.709 E21.14166
G1 X115.304 Y102.163 E21.17004
G1 X115.122 Y102.284 E21.17804
G1 X114.421 Y102.713 E21.20811
G1 X113.804 Y103.043 E21.23371
G1 X113.416 Y103.234 E21.24953
G1 X112.534 Y103.618 E21.28472
G1 X112.2 Y103.745 E21.2978
G1 X111.277 Y104.046 E21.33332
G1 X111.026 Y104.115 E21.34284
