;FLAVOR:Marlin
;TIME:540
;Filament used: 0.648249m
;Layer height: 0.4
;MINX:57.171
;MINY:74.082
;MINZ:0.2
;MAXX:122.827
;MAXY:105.918
;MAXZ:8.6
;Generated with Cura_SteamEngine 5.2.2
M140 S50
M105
M190 S50
M104 S190
M105
M109 S190
M82 ;absolute extrusion mode
; G28 home all axes
 M117 Purge extruder
 G92 E0 ; reset extruder
 G1 Z1.0 F3000 ; move z up little to prevent scratching of surface
 G1 X2 Y20 Z0.3 F5000.0 ; move to start-line position
 G1 X2 Y175.0 Z0.3 F1500.0 E15 ; draw 1st line
 G1 X2 Y175.0 Z0.4 F5000.0 ; move to side a little
 G1 X2 Y20 Z0.4 F1500.0 E30 ; draw 2nd line
 G92 E0 ; reset extruder
 G1 Z1.0 F3000 ; move z up little to prevent scratching of surface
G92 E0
G92 E0
G1 F2400 E-4
;LAYER_COUNT:20
;LAYER:0
M107
G1 F300 Z1
G0 F6000 X62.796 Y77.621 Z1
;TYPE:SKIRT
G1 F300 Z0.2
G1 F2400 E0
G1 F1200 X63.17 Y77.321 E0.01754
G1 X64.17 Y76.603 E0.06258
G1 X64.42 Y76.443 E0.07344
G1 X65.198 Y75.987 E0.10643
G1 X65.499 Y75.826 E0.11892
G1 X66.571 Y75.322 E0.16226
G1 X66.896 Y75.189 E0.17511
G1 X67.999 Y74.801 E0.21789
G1 X68.507 Y74.651 E0.23727
G1 X69.648 Y74.377 E0.2802
G1 X69.92 Y74.326 E0.29032
G1 X70.837 Y74.192 E0.32423
G1 X71.093 Y74.165 E0.33365
G1 X72.089 Y74.103 E0.37016
G1 X73.326 Y74.082 E0.41542
G1 X107.054 Y74.083 E1.6494
G1 X107.656 Y74.092 E1.67143
G1 X108.335 Y74.123 E1.69629
G1 X108.713 Y74.151 E1.71016
G1 X109.758 Y74.276 E1.74867
G1 X110.16 Y74.343 E1.76358
G1 X111.339 Y74.603 E1.80775
G1 X111.697 Y74.702 E1.82134
G1 X112.976 Y75.138 E1.87078
G1 X113.403 Y75.312 E1.88764
G1 X114.394 Y75.772 E1.92762
G1 X114.702 Y75.933 E1.94033
G1 X115.772 Y76.568 E1.98585
G1 X116.077 Y76.772 E1.99928
G1 X116.919 Y77.392 E2.03753
G1 X117.301 Y77.701 E2.05551
G1 X118.332 Y78.644 E2.10663
G1 X118.579 Y78.899 E2.11962
G1 X119.286 Y79.7 E2.15871
G1 X119.56 Y80.041 E2.17471
G1 X120.219 Y80.949 E2.21576
G1 X120.382 Y81.198 E2.22665
G1 X120.859 Y81.995 E2.26063
G1 X121.01 Y82.272 E2.27217
G1 X121.387 Y83.023 E2.30291
G1 X121.731 Y83.822 E2.33474
G1 X121.836 Y84.094 E2.34541
G1 X122.179 Y85.126 E2.3852
G1 X122.269 Y85.446 E2.39736
G1 X122.466 Y86.245 E2.42747
G1 X122.62 Y87.066 E2.45803
G1 X122.677 Y87.444 E2.47201
G1 X122.793 Y88.621 E2.51528
G1 X122.814 Y89.066 E2.53158
G1 X122.827 Y89.68 E2.55405
G1 X122.821 Y90.672 E2.59035
G1 X122.795 Y91.38 E2.61627
G1 X122.78 Y91.602 E2.62441
G1 X122.704 Y92.358 E2.65221
G1 X122.656 Y92.716 E2.66542
G1 X122.487 Y93.67 E2.70087
G1 X122.419 Y93.978 E2.71241
G1 X122.176 Y94.897 E2.74718
G1 X122.104 Y95.13 E2.75611
G1 X121.78 Y96.04 E2.79145
G1 X121.611 Y96.459 E2.80798
G1 X121.175 Y97.414 E2.84639
G1 X121.042 Y97.673 E2.85704
G1 X120.575 Y98.497 E2.89169
G1 X120.361 Y98.841 E2.90651
G1 X119.82 Y99.635 E2.94166
G1 X119.351 Y100.224 E2.96921
G1 X118.997 Y100.64 E2.9892
G1 X118.218 Y101.469 E3.03081
G1 X117.995 Y101.684 E3.04215
G1 X117.2 Y102.383 E3.08088
G1 X116.828 Y102.681 E3.09832
G1 X115.825 Y103.399 E3.14345
G1 X115.562 Y103.567 E3.15486
G1 X114.83 Y103.998 E3.18594
G1 X114.565 Y104.141 E3.19696
G1 X113.604 Y104.603 E3.23597
G1 X113.268 Y104.746 E3.24933
G1 X112.422 Y105.068 E3.28245
G1 X112.151 Y105.159 E3.29291
G1 X111.327 Y105.402 E3.32434
G1 X111.119 Y105.455 E3.33219
G1 X110.416 Y105.611 E3.35854
G1 X110.099 Y105.671 E3.37034
G1 X109.163 Y105.808 E3.40495
G1 X108.907 Y105.835 E3.41437
G1 X107.911 Y105.897 E3.45088
G1 X106.674 Y105.918 E3.49614
G1 X72.946 Y105.917 E4.73012
G1 X72.344 Y105.908 E4.75215
G1 X71.665 Y105.877 E4.77701
G1 X71.287 Y105.849 E4.79088
G1 X70.242 Y105.724 E4.82939
G1 X69.84 Y105.657 E4.8443
G1 X68.645 Y105.392 E4.88908
G1 X68.289 Y105.293 E4.9026
G1 X67.047 Y104.87 E4.9506
G1 X66.63 Y104.701 E4.96706
G1 X65.782 Y104.317 E5.00112
G1 X65.583 Y104.217 E5.00927
G1 X64.95 Y103.874 E5.03561
G1 X64.686 Y103.72 E5.04679
G1 X63.768 Y103.124 E5.08684
G1 X63.072 Y102.601 E5.11869
G1 X62.811 Y102.39 E5.13097
G1 X62.233 Y101.89 E5.15893
G1 X61.982 Y101.658 E5.17143
G1 X61.342 Y101.018 E5.20455
G1 X61.158 Y100.819 E5.21446
G1 X60.531 Y100.081 E5.24989
G1 X60.354 Y99.854 E5.26042
G1 X59.787 Y99.061 E5.29609
G1 X59.594 Y98.765 E5.30902
G1 X59.122 Y97.973 E5.34275
G1 X58.997 Y97.743 E5.35233
G1 X58.671 Y97.096 E5.37883
G1 X58.539 Y96.812 E5.39029
G1 X58.047 Y95.57 E5.43917
G1 X57.89 Y95.095 E5.45747
G1 X57.577 Y93.953 E5.50079
G1 X57.509 Y93.644 E5.51237
G1 X57.339 Y92.679 E5.54822
G1 X57.292 Y92.324 E5.56132
G1 X57.203 Y91.324 E5.59805
G1 X57.175 Y90.536 E5.6269
G1 X57.171 Y89.891 E5.6505
G1 X57.18 Y89.24 E5.67432
G1 X57.219 Y88.42 E5.70435
G1 X57.283 Y87.751 E5.72894
G1 X57.326 Y87.409 E5.74155
G1 X57.513 Y86.336 E5.7814
G1 X57.596 Y85.964 E5.79534
G1 X57.852 Y85.01 E5.83148
G1 X57.915 Y84.81 E5.83915
G1 X58.22 Y83.96 E5.87219
G1 X58.389 Y83.541 E5.88872
G1 X58.859 Y82.521 E5.92981
G1 X59.004 Y82.243 E5.94128
G1 X59.478 Y81.42 E5.97603
G1 X59.692 Y81.081 E5.9907
G1 X60.238 Y80.291 E6.02583
G1 X60.66 Y79.764 E6.05053
G1 X60.996 Y79.369 E6.0695
G1 X61.771 Y78.543 E6.11094
G1 X62.002 Y78.32 E6.12269
G1 X62.796 Y77.621 E6.16139
G0 F6000 X63.072 Y77.964
G1 F1200 X63.446 Y77.664 E6.17893
G1 X64.408 Y76.974 E6.22225
G1 X64.658 Y76.814 E6.23311
G1 X65.406 Y76.375 E6.26484
G1 X65.707 Y76.214 E6.27733
G1 X66.738 Y75.729 E6.31901
G1 X67.063 Y75.596 E6.33186
G1 X68.124 Y75.223 E6.37301
G1 X68.632 Y75.073 E6.39239
G1 X69.729 Y74.809 E6.43367
G1 X70.001 Y74.758 E6.44379
G1 X70.883 Y74.629 E6.4764
G1 X71.139 Y74.602 E6.48582
G1 X72.097 Y74.543 E6.52094
G1 X73.326 Y74.522 E6.56591
G1 X107.047 Y74.523 E7.79963
G1 X107.649 Y74.532 E7.82166
G1 X108.303 Y74.561 E7.84561
G1 X108.681 Y74.589 E7.85948
G1 X109.686 Y74.71 E7.89651
G1 X110.088 Y74.777 E7.91142
G1 X111.222 Y75.028 E7.95391
G1 X111.58 Y75.127 E7.9675
G1 X112.81 Y75.546 E8.01504
G1 X113.237 Y75.72 E8.03191
G1 X114.19 Y76.162 E8.07035
G1 X114.498 Y76.323 E8.08306
G1 X115.527 Y76.934 E8.12685
G1 X115.832 Y77.138 E8.14027
G1 X116.642 Y77.734 E8.17706
G1 X117.024 Y78.043 E8.19504
G1 X118.016 Y78.95 E8.24422
G1 X118.263 Y79.205 E8.2572
G1 X118.943 Y79.975 E8.29479
G1 X119.217 Y80.316 E8.31079
G1 X119.851 Y81.19 E8.3503
G1 X120.014 Y81.439 E8.36119
G1 X120.473 Y82.205 E8.39386
G1 X120.624 Y82.482 E8.4054
G1 X120.99 Y83.212 E8.43528
G1 X121.32 Y83.981 E8.46589
G1 X121.425 Y84.253 E8.47656
G1 X121.755 Y85.245 E8.51481
G1 X121.845 Y85.565 E8.52697
G1 X122.036 Y86.342 E8.55624
G1 X122.185 Y87.132 E8.58566
G1 X122.242 Y87.51 E8.59964
G1 X122.354 Y88.642 E8.64126
G1 X122.375 Y89.087 E8.65756
G1 X122.387 Y89.677 E8.67915
G1 X122.381 Y90.669 E8.71544
G1 X122.356 Y91.35 E8.74037
G1 X122.341 Y91.572 E8.74852
G1 X122.268 Y92.299 E8.77525
G1 X122.22 Y92.657 E8.78846
G1 X122.057 Y93.575 E8.82257
G1 X121.989 Y93.883 E8.83411
G1 X121.755 Y94.767 E8.86757
G1 X121.683 Y95 E8.87649
G1 X121.372 Y95.875 E8.91047
G1 X121.203 Y96.294 E8.927
G1 X120.783 Y97.213 E8.96396
G1 X120.65 Y97.472 E8.97462
G1 X120.201 Y98.264 E9.00792
G1 X119.987 Y98.608 E9.02275
G1 X119.456 Y99.386 E9.05721
G1 X119.016 Y99.939 E9.08306
G1 X118.662 Y100.355 E9.10305
G1 X117.912 Y101.152 E9.14309
G1 X117.689 Y101.367 E9.15442
G1 X116.925 Y102.039 E9.19165
G1 X116.553 Y102.337 E9.20909
G1 X115.588 Y103.028 E9.25251
G1 X115.325 Y103.196 E9.26393
G1 X114.621 Y103.61 E9.29381
G1 X114.356 Y103.753 E9.30482
G1 X113.432 Y104.198 E9.34235
G1 X113.096 Y104.341 E9.35571
G1 X112.282 Y104.651 E9.38757
G1 X112.011 Y104.742 E9.39803
G1 X111.219 Y104.975 E9.42824
G1 X111.011 Y105.028 E9.43609
G1 X110.334 Y105.178 E9.46146
G1 X110.017 Y105.238 E9.47326
G1 X109.117 Y105.371 E9.50655
G1 X108.861 Y105.398 E9.51597
G1 X107.903 Y105.457 E9.55108
G1 X106.674 Y105.478 E9.59605
G1 X72.953 Y105.477 E10.82977
G1 X72.351 Y105.468 E10.8518
G1 X71.697 Y105.439 E10.87575
G1 X71.319 Y105.411 E10.88962
G1 X70.314 Y105.29 E10.92665
G1 X69.912 Y105.223 E10.94157
G1 X68.763 Y104.968 E10.98463
G1 X68.407 Y104.869 E10.99814
G1 X67.212 Y104.462 E11.04433
G1 X66.795 Y104.293 E11.06079
G1 X65.98 Y103.924 E11.09352
G1 X65.781 Y103.824 E11.10167
G1 X65.172 Y103.494 E11.12701
G1 X64.908 Y103.34 E11.1382
G1 X64.025 Y102.767 E11.17671
G1 X63.349 Y102.259 E11.20765
G1 X63.088 Y102.048 E11.21992
G1 X62.532 Y101.567 E11.24682
G1 X62.281 Y101.335 E11.25933
G1 X61.665 Y100.72 E11.29117
G1 X61.481 Y100.521 E11.30109
G1 X60.878 Y99.81 E11.3352
G1 X60.701 Y99.583 E11.34573
G1 X60.156 Y98.821 E11.38
G1 X59.963 Y98.525 E11.39293
G1 X59.508 Y97.762 E11.42543
G1 X59.383 Y97.532 E11.43501
G1 X59.07 Y96.911 E11.46045
G1 X58.938 Y96.627 E11.47191
G1 X58.465 Y95.431 E11.51897
G1 X58.308 Y94.956 E11.53727
G1 X58.006 Y93.859 E11.5789
G1 X57.938 Y93.55 E11.59047
G1 X57.775 Y92.621 E11.62498
G1 X57.728 Y92.266 E11.63808
G1 X57.643 Y91.304 E11.67342
G1 X57.615 Y90.531 E11.70172
G1 X57.611 Y89.898 E11.72488
G1 X57.62 Y89.247 E11.74869
G1 X57.658 Y88.449 E11.77792
G1 X57.72 Y87.806 E11.80156
G1 X57.763 Y87.464 E11.81417
G1 X57.942 Y86.432 E11.85249
G1 X58.025 Y86.06 E11.86643
G1 X58.272 Y85.142 E11.90121
G1 X58.335 Y84.942 E11.90889
G1 X58.628 Y84.125 E11.94064
G1 X58.797 Y83.706 E11.95717
G1 X59.249 Y82.725 E11.99669
G1 X59.394 Y82.447 E12.00816
G1 X59.85 Y81.655 E12.0416
G1 X60.064 Y81.316 E12.05626
G1 X60.6 Y80.541 E12.09074
G1 X60.995 Y80.049 E12.11382
G1 X61.331 Y79.654 E12.13279
G1 X62.077 Y78.86 E12.17265
G1 X62.308 Y78.637 E12.1844
G1 X63.072 Y77.964 E12.22165
G0 F6000 X63.347 Y78.308
G1 F1200 X63.721 Y78.008 E12.23919
G1 X64.645 Y77.344 E12.28082
G1 X64.895 Y77.184 E12.29168
G1 X65.613 Y76.763 E12.32213
G1 X65.914 Y76.602 E12.33462
G1 X66.905 Y76.136 E12.37469
G1 X67.23 Y76.003 E12.38753
G1 X68.248 Y75.645 E12.42701
G1 X68.756 Y75.495 E12.44639
G1 X69.81 Y75.242 E12.48605
G1 X70.082 Y75.191 E12.49618
G1 X70.929 Y75.067 E12.52749
G1 X71.185 Y75.04 E12.53691
G1 X72.105 Y74.983 E12.57064
G1 X73.326 Y74.962 E12.61531
G1 X107.04 Y74.963 E13.84878
G1 X107.642 Y74.972 E13.87081
G1 X108.27 Y75 E13.89381
G1 X108.648 Y75.028 E13.90767
G1 X109.613 Y75.144 E13.94323
G1 X110.015 Y75.211 E13.95814
G1 X111.104 Y75.452 E13.99895
G1 X111.462 Y75.551 E14.01254
G1 X112.644 Y75.953 E14.05822
G1 X113.071 Y76.127 E14.07509
G1 X113.986 Y76.552 E14.112
G1 X114.294 Y76.713 E14.12471
G1 X115.283 Y77.299 E14.16677
G1 X115.588 Y77.503 E14.1802
G1 X116.365 Y78.076 E14.21552
G1 X116.747 Y78.385 E14.23349
G1 X117.7 Y79.256 E14.28073
G1 X117.947 Y79.511 E14.29372
G1 X118.6 Y80.251 E14.32982
G1 X118.874 Y80.592 E14.34583
G1 X119.483 Y81.43 E14.38373
G1 X119.646 Y81.679 E14.39462
G1 X120.087 Y82.416 E14.42604
G1 X120.238 Y82.693 E14.43758
G1 X120.592 Y83.401 E14.46654
G1 X120.91 Y84.139 E14.49594
G1 X121.015 Y84.411 E14.50661
G1 X121.332 Y85.364 E14.54336
G1 X121.422 Y85.684 E14.55552
G1 X121.607 Y86.439 E14.58396
G1 X121.75 Y87.198 E14.61221
G1 X121.807 Y87.576 E14.6262
G1 X121.914 Y88.663 E14.66616
G1 X121.935 Y89.108 E14.68246
G1 X121.947 Y89.674 E14.70317
G1 X121.941 Y90.666 E14.73947
G1 X121.917 Y91.321 E14.76345
G1 X121.902 Y91.543 E14.77159
G1 X121.831 Y92.241 E14.79726
G1 X121.783 Y92.599 E14.81047
G1 X121.627 Y93.48 E14.84321
G1 X121.559 Y93.788 E14.85475
G1 X121.335 Y94.637 E14.88687
G1 X121.263 Y94.87 E14.89579
G1 X120.964 Y95.71 E14.92841
G1 X120.795 Y96.129 E14.94494
G1 X120.392 Y97.012 E14.98045
G1 X120.259 Y97.271 E14.99111
G1 X119.827 Y98.032 E15.02312
G1 X119.613 Y98.376 E15.03794
G1 X119.092 Y99.138 E15.07172
G1 X118.68 Y99.653 E15.09585
G1 X118.326 Y100.069 E15.11583
G1 X117.607 Y100.835 E15.15427
G1 X117.384 Y101.05 E15.1656
G1 X116.65 Y101.696 E15.20137
G1 X116.278 Y101.994 E15.21881
G1 X115.352 Y102.658 E15.2605
G1 X115.089 Y102.826 E15.27192
G1 X114.412 Y103.223 E15.30063
G1 X114.147 Y103.366 E15.31165
G1 X113.26 Y103.794 E15.34768
G1 X112.924 Y103.937 E15.36104
G1 X112.142 Y104.233 E15.39163
G1 X111.871 Y104.324 E15.40209
G1 X111.11 Y104.549 E15.43112
G1 X110.902 Y104.602 E15.43898
G1 X110.252 Y104.746 E15.46334
G1 X109.935 Y104.806 E15.47514
G1 X109.071 Y104.933 E15.50709
G1 X108.815 Y104.96 E15.51651
G1 X107.895 Y105.017 E15.55023
G1 X106.674 Y105.038 E15.59491
G1 X72.96 Y105.037 E16.82837
G1 X72.358 Y105.028 E16.8504
G1 X71.73 Y105 E16.8734
G1 X71.352 Y104.972 E16.88727
G1 X70.387 Y104.856 E16.92283
G1 X69.985 Y104.789 E16.93774
G1 X68.881 Y104.544 E16.97911
G1 X68.525 Y104.445 E16.99263
G1 X67.377 Y104.054 E17.037
G1 X66.96 Y103.885 E17.05346
G1 X66.178 Y103.531 E17.08487
G1 X65.979 Y103.431 E17.09302
G1 X65.394 Y103.114 E17.11736
G1 X65.13 Y102.96 E17.12854
G1 X64.281 Y102.41 E17.16555
G1 X63.625 Y101.917 E17.19557
G1 X63.364 Y101.706 E17.20785
G1 X62.83 Y101.244 E17.23369
G1 X62.579 Y101.012 E17.24619
G1 X61.988 Y100.421 E17.27677
G1 X61.804 Y100.222 E17.28669
G1 X61.224 Y99.54 E17.31944
G1 X61.047 Y99.313 E17.32997
G1 X60.524 Y98.58 E17.36292
G1 X60.331 Y98.284 E17.37585
G1 X59.895 Y97.552 E17.40702
G1 X59.77 Y97.322 E17.4166
G1 X59.469 Y96.725 E17.44106
G1 X59.337 Y96.441 E17.45251
G1 X58.883 Y95.293 E17.49768
G1 X58.726 Y94.818 E17.51598
G1 X58.436 Y93.764 E17.55598
G1 X58.368 Y93.455 E17.56755
G1 X58.211 Y92.563 E17.60069
G1 X58.164 Y92.208 E17.61379
G1 X58.083 Y91.285 E17.64769
G1 X58.055 Y90.526 E17.67548
G1 X58.051 Y89.904 E17.69824
G1 X58.06 Y89.253 E17.72205
G1 X58.097 Y88.479 E17.75041
G1 X58.156 Y87.861 E17.77312
G1 X58.199 Y87.519 E17.78573
G1 X58.372 Y86.528 E17.82253
G1 X58.455 Y86.156 E17.83648
G1 X58.692 Y85.274 E17.86989
G1 X58.755 Y85.074 E17.87756
G1 X59.036 Y84.29 E17.90803
G1 X59.205 Y83.871 E17.92456
G1 X59.639 Y82.928 E17.96254
G1 X59.784 Y82.65 E17.97401
G1 X60.222 Y81.89 E18.00611
G1 X60.436 Y81.551 E18.02077
G1 X60.962 Y80.792 E18.05456
G1 X61.33 Y80.334 E18.07606
G1 X61.666 Y79.939 E18.09503
G1 X62.382 Y79.177 E18.13328
G1 X62.613 Y78.954 E18.14503
G1 X63.347 Y78.308 E18.1808
G0 F6000 X63.622 Y78.651
G1 F1200 X63.996 Y78.351 E18.19834
G1 X64.882 Y77.715 E18.23825
G1 X65.132 Y77.555 E18.24911
G1 X65.821 Y77.151 E18.27833
G1 X66.122 Y76.99 E18.29082
G1 X67.071 Y76.543 E18.3292
G1 X67.396 Y76.41 E18.34204
G1 X68.373 Y76.067 E18.37993
G1 X68.881 Y75.917 E18.39931
G1 X69.892 Y75.674 E18.43735
G1 X70.164 Y75.623 E18.44747
G1 X70.975 Y75.504 E18.47746
G1 X71.231 Y75.477 E18.48688
G1 X72.113 Y75.423 E18.51921
G1 X73.326 Y75.402 E18.5636
G1 X107.034 Y75.403 E19.79684
G1 X107.636 Y75.412 E19.81887
G1 X108.238 Y75.439 E19.84092
G1 X108.616 Y75.467 E19.85478
G1 X109.541 Y75.578 E19.88887
G1 X109.943 Y75.645 E19.90378
G1 X110.987 Y75.876 E19.9429
G1 X111.345 Y75.975 E19.95649
G1 X112.478 Y76.361 E20.00028
G1 X112.905 Y76.535 E20.01715
G1 X113.782 Y76.942 E20.05252
G1 X114.09 Y77.103 E20.06524
G1 X115.038 Y77.665 E20.10556
G1 X115.343 Y77.869 E20.11898
G1 X116.088 Y78.418 E20.15284
G1 X116.47 Y78.727 E20.17082
G1 X117.384 Y79.562 E20.21611
G1 X117.631 Y79.817 E20.2291
G1 X118.257 Y80.527 E20.26373
G1 X118.531 Y80.868 E20.27973
G1 X119.115 Y81.671 E20.31606
G1 X119.278 Y81.92 E20.32695
G1 X119.7 Y82.626 E20.35704
G1 X119.851 Y82.903 E20.36858
G1 X120.195 Y83.59 E20.39669
G1 X120.499 Y84.297 E20.42485
G1 X120.604 Y84.569 E20.43552
G1 X120.908 Y85.483 E20.47076
G1 X120.998 Y85.803 E20.48292
G1 X121.178 Y86.536 E20.51053
G1 X121.315 Y87.263 E20.5376
G1 X121.372 Y87.641 E20.55158
G1 X121.475 Y88.683 E20.58989
G1 X121.496 Y89.128 E20.60619
G1 X121.507 Y89.672 E20.6261
G1 X121.501 Y90.664 E20.66239
G1 X121.478 Y91.291 E20.68535
G1 X121.463 Y91.513 E20.69349
G1 X121.395 Y92.182 E20.71809
G1 X121.347 Y92.54 E20.73131
G1 X121.198 Y93.385 E20.7627
G1 X121.13 Y93.693 E20.77424
G1 X120.914 Y94.507 E20.80505
G1 X120.842 Y94.74 E20.81397
G1 X120.556 Y95.546 E20.84526
G1 X120.387 Y95.965 E20.86179
G1 X120 Y96.811 E20.89583
G1 X119.867 Y97.07 E20.90648
G1 X119.454 Y97.799 E20.93713
G1 X119.24 Y98.143 E20.95196
G1 X118.729 Y98.889 E20.98504
G1 X118.345 Y99.368 E21.0075
G1 X117.991 Y99.784 E21.02749
G1 X117.301 Y100.518 E21.06434
G1 X117.078 Y100.733 E21.07568
G1 X116.375 Y101.352 E21.10994
G1 X116.003 Y101.65 E21.12738
G1 X115.115 Y102.287 E21.16737
G1 X114.852 Y102.455 E21.17878
G1 X114.203 Y102.836 E21.20632
G1 X113.938 Y102.979 E21.21733
G1 X113.087 Y103.389 E21.25189
G1 X112.751 Y103.532 E21.26525
G1 X112.002 Y103.816 E21.29456
G1 X111.731 Y103.907 E21.30502
G1 X111.002 Y104.123 E21.33284
